X: 12492
T: Farewell To Erin
R: reel
M: 4/4
K: Dmajor
D2{FE}D2ADFD|Addc def2|D2{FE}D2 ADFA|EBAF EDB,A,|
D2{FE}D2ADFD|Addc def2|dB{Bc}BA BdAd|1 (3BBB AF EDCE:|2 (3BBB AF Egfe||
d2Bd AF (3FFF|DFAF BFAF|GABd AF (3FFF|DE {F}ED EABc|
1d2cd (3BBB Bd|BAAF ABde|f2ec dBcA|(3BBB AF Egfe||
2 d2Bd AF (3FFF|DFAF BFAF|GABd AF (3FFF|DE {F}ED EABc|
dcBA (3BBB Bd|BAAF ABde|f2ec dBcA|BdAF E3F||

